src/components/Icon/assets/cloud-upload.svg

<svg width="24" height="24" viewBox="0 0 24 24" fill="none" xmlns="http://www.w3.org/2000/svg">
<path fill-rule="evenodd" clip-rule="evenodd" d="M16.8349 6.837H16.9209C20.2729 6.837 22.9999 9.565 22.9999 12.917C22.9999 16.27 20.2729 18.997 16.9209 18.997H16.0039V16.997H16.9209C19.1699 16.997 20.9999 15.167 20.9999 12.917C20.9999 10.667 19.1699 8.837 16.9209 8.837H15.7219L15.4329 8.343C14.7129 7.113 13.4479 6.38 12.0489 6.38C10.1169 6.38 8.44988 7.831 8.17188 9.755L8.04888 10.612H6.01988C4.35488 10.612 2.99988 11.967 2.99988 13.632V13.977C2.99988 15.642 4.35488 16.997 6.01988 16.997H8.00388V18.997H6.01988C3.25188 18.997 0.999878 16.745 0.999878 13.977V13.632C0.999878 10.864 3.25188 8.612 6.01988 8.612H6.38288C7.12588 6.148 9.42488 4.38 12.0489 4.38C13.9379 4.38 15.7229 5.309 16.8349 6.837ZM12.2629 10.6175L15.9199 14.2745C16.0979 14.4535 15.9719 14.7575 15.7199 14.7575H13.4199V18.6425C13.4199 18.8385 13.2609 18.9975 13.0659 18.9975H10.9409C10.7459 18.9975 10.5869 18.8385 10.5869 18.6425V14.7575H8.28689C8.03489 14.7575 7.90789 14.4535 8.08689 14.2745L11.7439 10.6175C11.8869 10.4735 12.1189 10.4735 12.2629 10.6175Z" fill="#65676A"/>
</svg>

<svg xmlns="http://www.w3.org/2000/svg" width="24" height="24" viewBox="0 0 24 24">
    <path fill="#65676A" fill-rule="evenodd" d="M11.744 10.617c.143-.144.375-.144.519 0l3.657 3.657c.178.18.052.484-.2.484h-2.3v3.884c0 .197-.16.355-.354.355H10.94c-.195 0-.354-.159-.354-.355v-3.884h-2.3c-.252 0-.38-.304-.2-.483zm.305-6.237c1.889 0 3.674.929 4.786 2.457h.086c3.352 0 6.079 2.728 6.079 6.08 0 3.353-2.727 6.08-6.08 6.08h-.916v-2h.917c2.249 0 4.079-1.83 4.079-4.08s-1.83-4.08-4.08-4.08h-1.198l-.29-.494c-.72-1.23-1.984-1.963-3.383-1.963-1.932 0-3.6 1.451-3.877 3.375l-.123.857h-2.03c-1.664 0-3.02 1.355-3.02 3.02v.345c0 1.665 1.356 3.02 3.02 3.02h1.985v2H6.02c-2.768 0-5.02-2.252-5.02-5.02v-.345c0-2.768 2.252-5.02 5.02-5.02h.363c.743-2.464 3.042-4.232 5.666-4.232z"/>
</svg>
